brandFactory_export/2.Regular/Progreso abajo _2Regular.svg

<?xml version="1.0" encoding="UTF-8"?>
<svg width="24px" height="24px" viewBox="0 0 24 24" version="1.1" xmlns="http://www.w3.org/2000/svg" xmlns:xlink="http://www.w3.org/1999/xlink">
    <title>2.Regular/Progreso abajo _2Regular</title>
    <g id="Symbols" stroke="none" stroke-width="1" fill="none" fill-rule="evenodd">
        <g id="2.Regular/Progreso-abajo-_2Regular" fill="#5CB615" fill-rule="nonzero">
            <path d="M23.6504202,15.7647059 L23.1361345,19.9428571 C23.0756303,20.4168067 22.6689076,20.7697479 22.1915966,20.7664104 L18.0033613,20.7664104 C17.4823529,20.7697479 17.0588235,20.3529412 17.0521008,19.8319328 C17.0521008,19.3176471 17.4823529,18.897479 18.0033613,18.897479 L20.2621849,18.897479 L14.2789916,10.5579832 L6.12773109,14.0705882 C5.67731092,14.2588235 5.15630252,14.087395 4.90756303,13.6705882 L0.154621849,5.43193277 C-0.100840336,4.98151261 0.0571428571,4.41344538 0.507563025,4.15798319 C0.51092437,4.15462185 0.514285714,4.15462185 0.517647059,4.1512605 C0.974789916,3.89915966 1.54957983,4.05378151 1.81176471,4.50420168 L6.14453782,12.010084 L14.2218487,8.53781513 C14.6352941,8.35630252 15.1193277,8.48739496 15.3848739,8.85378151 L21.5260504,17.4285714 L21.7546218,15.5394958 C21.8285714,15.0218487 22.2991597,14.6554622 22.8201681,14.7159664 C23.3344538,14.7731092 23.707563,15.2403361 23.6504202,15.7546218 L23.6504202,15.7647059" id="Path"></path>
        </g>
    </g>
</svg>

<svg width="24" height="24" viewBox="0 0 24 24" xmlns="http://www.w3.org/2000/svg"><path d="M23.65 15.765l-.514 4.178a.945.945 0 01-.944.823h-4.189a.945.945 0 01-.95-.934c0-.514.43-.935.95-.935h2.26l-5.984-8.339-8.151 3.513a.981.981 0 01-1.22-.4L.155 5.43a.933.933 0 01.353-1.273l.01-.007a.96.96 0 011.294.353l4.333 7.506 8.077-3.472a.96.96 0 011.163.316l6.141 8.575.229-1.89a.964.964 0 011.065-.823.943.943 0 01.83 1.039v.01" fill="#5CB615" fill-rule="nonzero"/></svg>
